BigSur-Originals/apps/symbolic/gallery-app-symbolic.svg

<svg width="16" height="16" version="1.1" xmlns="http://www.w3.org/2000/svg">
 <path d="m3.994 2c-1.258 0.015-2.179-0.03-2.931 0.385a1.88 1.88 0 0 0-0.838 0.998c-0.165 0.439-0.225 0.96-0.225 1.617v7c0 0.658 0.06 1.179 0.225 1.617 0.164 0.439 0.461 0.79 0.838 0.998 0.752 0.416 1.673 0.37 2.931 0.385h8.012c1.258-0.014 2.179 0.03 2.932-0.385a1.88 1.88 0 0 0 0.838-0.998c0.164-0.438 0.224-0.96 0.224-1.617v-7c0-0.658-0.06-1.178-0.225-1.617a1.88 1.88 0 0 0-0.837-0.998c-0.753-0.416-1.674-0.37-2.932-0.385h-8.008zm6e-3 1h8c1.259 0.015 2.087 0.06 2.453 0.262 0.184 0.101 0.29 0.213 0.387 0.472 0.097 0.26 0.16 0.674 0.16 1.266v7h-14v-7c0-0.592 0.063-1.006 0.16-1.266 0.098-0.26 0.202-0.371 0.385-0.472 0.365-0.202 1.195-0.247 2.455-0.262z" color="#000000" fill="#363636" font-family="sans-serif" font-weight="400" overflow="visible" solid-color="#000000" style="font-feature-settings:normal;font-variant-alternates:normal;font-variant-caps:normal;font-variant-ligatures:normal;font-variant-numeric:normal;font-variant-position:normal;isolation:auto;mix-blend-mode:normal;shape-padding:0;text-decoration-color:#000000;text-decoration-line:none;text-decoration-style:solid;text-indent:0;text-orientation:mixed;text-transform:none;white-space:normal"/>
</svg>

<svg height="16" width="16" xmlns="http://www.w3.org/2000/svg"><path d="M3.994 2c-1.258.015-2.179-.03-2.931.385a1.88 1.88 0 00-.838.998C.06 3.822 0 4.343 0 5v7c0 .658.06 1.179.225 1.617.164.439.461.79.838.998.752.416 1.673.37 2.931.385H12.006c1.258-.014 2.179.03 2.932-.385a1.88 1.88 0 00.838-.998c.164-.438.224-.96.224-1.617V5c0-.658-.06-1.178-.225-1.617a1.88 1.88 0 00-.837-.998c-.753-.416-1.674-.37-2.932-.385H3.998zM4 3h8c1.259.015 2.087.06 2.453.262.184.101.29.213.387.472.097.26.16.674.16 1.266v7H1V5c0-.592.063-1.006.16-1.266.098-.26.202-.371.385-.472C1.91 3.06 2.74 3.015 4 3z" style="line-height:normal;font-variant-ligatures:normal;font-variant-position:normal;font-variant-caps:normal;font-variant-numeric:normal;font-variant-alternates:normal;font-feature-settings:normal;text-indent:0;text-align:start;text-decoration-line:none;text-decoration-style:solid;text-decoration-color:#000;text-transform:none;text-orientation:mixed;white-space:normal;shape-padding:0;isolation:auto;mix-blend-mode:normal;solid-color:#000;solid-opacity:1;marker:none" color="#000" font-weight="400" font-family="sans-serif" overflow="visible" fill="#363636"/></svg>
